X:13
T:Steamboat Hornpipe
M:4/4
L:1/8
K:G
(3def|: g2b>g d2g>d|B>cd>B G2A>B|c2e>c A2c>A|F>GA>B c>de>f |
g2b>g d2g>d|B>cdB G2A>B|c>ed>c B>AG>F|1 A2G2 G2(3def:|2 A2G2 G2Bc :|
|:d>Bd>B g2g2|e>ce>c a2a2|f2f2 g2g2 | a>gf>e d>e f>d |
g2b>g d2g>d|B>cd>B G2A>B|c>ed>c B>AG>F|1 A2G2 G2Bc :|2 A2G2 G2 ||
<end>
<start>
